Newaita-dark/actions/24/appointment-missed.svg

<svg height="24" viewBox="0 0 24 24" width="24" xmlns="http://www.w3.org/2000/svg"><g fill="#e0e0e0"><path d="m11.90625 2.171875c-5.496094 0-9.921875 4.425781-9.921875 9.921875 0 5.5 4.425781 9.925781 9.921875 9.925781.335938 0 .667969-.019531.992188-.050781v-1.996094c-.324219.039063-.65625.058594-.992188.058594-4.398438 0-7.9375-3.539062-7.9375-7.9375s3.539062-7.9375 7.9375-7.9375 7.9375 3.539062 7.9375 7.9375c0 .335938-.019531.667969-.058594.992188h1.996094c.03125-.324219.050781-.65625.050781-.992188 0-5.496094-4.425781-9.921875-9.925781-9.921875zm0 0"/><path d="m11.410156 5.148438c-.273437 0-.496094.222656-.496094.496093v6.449219c0 .550781.445313.992188.992188.992188.550781 0 .992188-.441407.992188-.992188v-6.449219c0-.273437-.21875-.496093-.496094-.496093zm0 0"/><path d="m18.492188 9.820312c-.070313-.265624-.34375-.421874-.609376-.351562l-6.230468 1.671875c-.53125.140625-.84375.683594-.699219 1.214844.140625.53125.683594.84375 1.214844.699219l6.230469-1.667969c.265624-.070313.421874-.34375.351562-.609375zm0 0"/><path d="m20.980469 15.546875.703125.703125c.195312.191406.195312.507812 0 .699219l-4.910156 4.914062c-.195313.191407-.507813.191407-.703126 0l-.703124-.703125c-.191407-.195312-.191407-.507812 0-.703125l4.914062-4.910156c.191406-.195313.507812-.195313.699219 0zm0 0"/><path d="m21.683594 21.160156-.703125.703125c-.191407.191407-.507813.191407-.699219 0l-4.914062-4.914062c-.191407-.191407-.191407-.507813 0-.699219l.703124-.703125c.195313-.195313.507813-.195313.703126 0l4.910156 4.910156c.195312.195313.195312.507813 0 .703125zm0 0"/></g></svg>

<?xml version="1.0" encoding="UTF-8"?>
<svg xmlns="http://www.w3.org/2000/svg" xmlns:xlink="http://www.w3.org/1999/xlink" width="24px" height="24px" viewBox="0 0 24 24" version="1.1">
<g id="surface1">
<path style=" stroke:none;fill-rule:nonzero;fill:rgb(87.843138%,87.843138%,87.843138%);fill-opacity:1;" d="M 11.90625 2.171875 C 6.410156 2.171875 1.984375 6.597656 1.984375 12.09375 C 1.984375 17.59375 6.410156 22.019531 11.90625 22.019531 C 12.242188 22.019531 12.574219 22 12.898438 21.96875 L 12.898438 19.972656 C 12.574219 20.011719 12.242188 20.03125 11.90625 20.03125 C 7.507812 20.03125 3.96875 16.492188 3.96875 12.09375 C 3.96875 7.695312 7.507812 4.15625 11.90625 4.15625 C 16.304688 4.15625 19.84375 7.695312 19.84375 12.09375 C 19.84375 12.429688 19.824219 12.761719 19.785156 13.085938 L 21.78125 13.085938 C 21.8125 12.761719 21.832031 12.429688 21.832031 12.09375 C 21.832031 6.597656 17.40625 2.171875 11.90625 2.171875 Z M 11.90625 2.171875 "/>
<path style=" stroke:none;fill-rule:nonzero;fill:rgb(87.843138%,87.843138%,87.843138%);fill-opacity:1;" d="M 11.410156 5.148438 C 11.136719 5.148438 10.914062 5.371094 10.914062 5.644531 L 10.914062 12.09375 C 10.914062 12.644531 11.359375 13.085938 11.90625 13.085938 C 12.457031 13.085938 12.898438 12.644531 12.898438 12.09375 L 12.898438 5.644531 C 12.898438 5.371094 12.679688 5.148438 12.402344 5.148438 Z M 11.410156 5.148438 "/>
<path style=" stroke:none;fill-rule:nonzero;fill:rgb(87.843138%,87.843138%,87.843138%);fill-opacity:1;" d="M 18.492188 9.820312 C 18.421875 9.554688 18.148438 9.398438 17.882812 9.46875 L 11.652344 11.140625 C 11.121094 11.28125 10.808594 11.824219 10.953125 12.355469 C 11.09375 12.886719 11.636719 13.199219 12.167969 13.054688 L 18.398438 11.386719 C 18.664062 11.316406 18.820312 11.042969 18.75 10.777344 Z M 18.492188 9.820312 "/>
<path style=" stroke:none;fill-rule:nonzero;fill:rgb(87.843138%,87.843138%,87.843138%);fill-opacity:1;" d="M 20.980469 15.546875 L 21.683594 16.25 C 21.878906 16.441406 21.878906 16.757812 21.683594 16.949219 L 16.773438 21.863281 C 16.578125 22.054688 16.265625 22.054688 16.070312 21.863281 L 15.367188 21.160156 C 15.175781 20.964844 15.175781 20.652344 15.367188 20.457031 L 20.28125 15.546875 C 20.472656 15.351562 20.789062 15.351562 20.980469 15.546875 Z M 20.980469 15.546875 "/>
<path style=" stroke:none;fill-rule:nonzero;fill:rgb(87.843138%,87.843138%,87.843138%);fill-opacity:1;" d="M 21.683594 21.160156 L 20.980469 21.863281 C 20.789062 22.054688 20.472656 22.054688 20.28125 21.863281 L 15.367188 16.949219 C 15.175781 16.757812 15.175781 16.441406 15.367188 16.25 L 16.070312 15.546875 C 16.265625 15.351562 16.578125 15.351562 16.773438 15.546875 L 21.683594 20.457031 C 21.878906 20.652344 21.878906 20.964844 21.683594 21.160156 Z M 21.683594 21.160156 "/>
</g>
</svg>
